NotoEmoji/1f1f8-1f1f7.svg

<svg xmlns="http://www.w3.org/2000/svg" viewBox="0 0 36 36"><path fill="#377E3F" d="M0 27c0 2.209 1.791 4 4 4h28c2.209 0 4-1.791 4-4v-1H0v1z"/><path fill="#FFF" d="M0 23h36v3H0z"/><path fill="#377E3F" d="M32 5H4C1.791 5 0 6.791 0 9v1h36V9c0-2.209-1.791-4-4-4z"/><path fill="#FFF" d="M0 10h36v3H0z"/><path fill="#B40A2D" d="M0 23h36V13H0v10zm16.833-6.11L18 13.297l1.167 3.593h3.778l-3.057 2.221 1.167 3.593L18 20.483l-3.056 2.221 1.167-3.593-3.057-2.221h3.779z"/><path fill="#ECC81D" d="M14.944 22.703L18 20.483l3.056 2.22-1.167-3.593 3.056-2.22h-3.778L18 13.297l-1.167 3.593h-3.778l3.056 2.22z"/></svg>

<svg viewBox="0 0 36 36" xmlns="http://www.w3.org/2000/svg"><path d="m0 27c0 2.21 1.79 4 4 4h28c2.21 0 4-1.79 4-4v-1h-36z" fill="#377e3f"/><path d="m0 23h36v3h-36z" fill="#fff"/><path d="m32 5h-28c-2.21 0-4 1.79-4 4v1h36v-1c0-2.21-1.79-4-4-4z" fill="#377e3f"/><path d="m0 10h36v3h-36z" fill="#fff"/><path d="m0 23h36v-10h-36zm16.83-6.11 1.17-3.59 1.17 3.59h3.78l-3.06 2.22 1.17 3.59-3.06-2.22-3.06 2.22 1.17-3.59-3.06-2.22z" fill="#b40a2d"/><path d="m14.94 22.7 3.06-2.22 3.06 2.22-1.17-3.59 3.06-2.22h-3.78l-1.17-3.59-1.17 3.59h-3.78l3.06 2.22z" fill="#ecc81d"/></svg>
